X: 087
M: C
L: 1/8
K: D
(A>B)A>F (B>c){e}d>{c}B | (A>F)(D>F) (E>D)(E>F) |\
(A>B)(A>F) (B>c)({e}d>{c}B) | (A>F)(E>F) D/D/D D :|
{Bc}d>cd>e .d.c.B.A | (B>A)(d>F) (A>B)(A>F) |\
{Bc}d>cd>e .d.c.B.A | (B>A)(d>F) [A4F4] |
{Bc}d>cB>A B>cd>g | {g}f/e/f/g/ a>f e>de>f |\
d>c.B.A (B>d)(g>b) | a>fe>f d/d/d d |]

